projects/vfh1/img/icons/scroll.svg

<svg width="32" height="30" viewBox="0 0 32 30" fill="none" xmlns="http://www.w3.org/2000/svg">
<g clip-path="url(#clip0_2564_7685)">
<path d="M27.4883 7.36495L28.5573 8.45263L32.001 4.76724L28.5573 1.08203L27.4883 2.17009L29.8633 4.76742L27.4883 7.36495Z" fill="#42474D"/>
<path d="M23.3287 9.24418L27.5177 4.79875L27.5471 4.7675L23.3287 0.291016L22.207 1.43268L25.3068 4.7675L22.207 8.10309L23.3287 9.24418Z" fill="#42474D"/>
<path d="M14.2021 2.35695C15.5077 1.02798 17.6323 1.02798 18.9379 2.35695C20.1811 3.62228 20.2404 5.64253 19.1156 6.98021L19.1193 8.76884C19.3949 8.58691 19.651 8.37603 19.8833 8.13967C21.7104 6.28003 21.7104 3.25334 19.8833 1.39445C18.0563 -0.464438 15.0827 -0.465196 13.2566 1.39445C11.4305 3.2541 11.4296 6.28078 13.2566 8.13967C13.514 8.40128 13.8005 8.63143 14.1103 8.82546L14.1051 7.0732C12.8979 5.73836 12.9299 3.65201 14.2021 2.35695Z" fill="#42474D"/>
<path d="M29.9068 21.2426L29.9015 19.9517L29.8842 15.5896C29.8836 15.2563 29.8185 14.9265 29.6926 14.6189C29.5667 14.3112 29.3824 14.0319 29.1504 13.7968C28.9188 13.5597 28.6433 13.3716 28.3399 13.2434C28.0365 13.1152 27.7112 13.0494 27.3827 13.0498C27.3552 13.0498 27.3334 13.0498 27.3215 13.0498C26.9175 13.0582 26.5217 13.1682 26.1695 13.3699C26.0014 12.8614 25.6803 12.4197 25.2518 12.1072C24.8234 11.7947 24.3092 11.6274 23.7821 11.6288H23.7341C23.2687 11.6386 22.8157 11.7831 22.428 12.0455C22.3072 11.8047 22.1503 11.5846 21.9629 11.393C21.5093 10.9274 20.8951 10.6605 20.251 10.6493H20.2324H20.2175H20.1967C19.8251 10.6504 19.4584 10.7362 19.1236 10.9004L19.1199 8.76898L19.1162 6.98036L19.1128 5.35385C19.108 4.66451 18.838 4.00452 18.3607 3.51542C17.906 3.04853 17.2897 2.78148 16.6439 2.77148H16.5897C15.2109 2.78114 14.0947 3.92886 14.1005 5.33283L14.1057 7.07354L14.1109 8.8258L14.1325 15.9778C13.8072 15.6955 13.4164 15.5026 12.9971 15.4173C12.5779 15.3321 12.1443 15.3574 11.7374 15.4909L11.7342 15.4919L11.7305 15.4924C10.4174 15.928 9.696 17.3699 10.1228 18.7072L11.0692 21.6697L11.0714 21.6765L11.0737 21.6831L11.9711 24.3895C12.3752 25.6035 13.0477 26.7068 13.9367 27.6145C15.3938 29.0976 17.3139 29.944 19.3434 29.9971H19.3473C19.4325 29.999 19.5172 30.0001 19.5988 29.9999H19.6031L21.3821 29.9923C22.9176 29.9863 24.4233 29.5603 25.7416 28.7588C28.1741 27.2757 29.6407 24.9734 29.8744 22.2733C29.9079 22.0015 29.9092 21.585 29.9092 21.5806V21.5772L29.9068 21.2426ZM19.3752 28.7168C17.6261 28.6709 16.0155 27.9198 14.8258 26.7092C14.0726 25.9418 13.5037 25.0079 13.1632 23.9801L12.2658 21.2736L11.3196 18.3113C11.2173 17.9911 11.2442 17.6427 11.3942 17.3426C11.5442 17.0425 11.8052 16.8153 12.1198 16.711C12.2431 16.6705 12.3719 16.6495 12.5016 16.6487C12.7658 16.6476 13.0235 16.732 13.2375 16.8896C13.4516 17.0473 13.6109 17.2701 13.6924 17.5259L14.4881 20.0163L14.5325 20.1553C14.5542 20.2266 14.5925 20.2916 14.6442 20.3447C14.6853 20.3859 14.7341 20.4183 14.7876 20.4401C14.8412 20.4619 14.8985 20.4727 14.9562 20.4718C15.1828 20.4704 15.4087 20.3055 15.4074 20.013L15.3589 5.32772C15.3579 4.99108 15.4882 4.66781 15.7212 4.42885C15.9541 4.18989 16.2707 4.05476 16.6014 4.0531C16.6093 4.0531 16.6173 4.0531 16.6251 4.0531C16.9436 4.05874 17.2472 4.19119 17.4709 4.42204C17.715 4.67117 17.8528 5.00812 17.8544 5.35991L17.8946 18.0148C17.8949 18.1578 17.9497 18.295 18.0477 18.3976C18.1456 18.5001 18.2789 18.5598 18.4193 18.564H18.4379C18.7385 18.5629 18.9805 18.2915 18.9794 17.9829L18.9608 13.2055C18.9597 12.8687 19.09 12.5453 19.323 12.3061C19.556 12.067 19.8727 11.9318 20.2036 11.9301H20.227C20.5456 11.9357 20.8493 12.0682 21.0731 12.2991C21.3173 12.5487 21.4547 12.8864 21.4556 13.2387L21.4772 18.6627C21.4775 18.8058 21.5324 18.9432 21.6305 19.0457C21.7286 19.1483 21.8621 19.2079 22.0027 19.2119C22.0089 19.2123 22.0151 19.2123 22.0213 19.2119C22.3218 19.2106 22.5641 18.9394 22.5627 18.631L22.5441 14.2273C22.5417 13.528 23.0761 12.9262 23.7627 12.9101H23.7865C24.1174 12.9089 24.4352 13.0415 24.6702 13.2786C24.9051 13.5158 25.038 13.8382 25.0395 14.175L25.0607 19.4212C25.0639 19.5658 25.1227 19.7035 25.2245 19.8044C25.3263 19.9054 25.463 19.9617 25.6051 19.9611C25.7473 19.9605 25.8835 19.9032 25.9846 19.8014C26.0856 19.6996 26.1433 19.5615 26.1453 19.4168L26.1305 15.6479C26.1275 14.9487 26.6626 14.3464 27.3494 14.3309C27.3572 14.3309 27.3648 14.3309 27.3725 14.3309C27.7033 14.3295 28.0211 14.4618 28.2561 14.6988C28.4911 14.9359 28.624 15.2582 28.6257 15.5949L28.643 19.957L28.6484 21.249L28.65 21.5837C28.65 21.6956 28.6402 22.0253 28.6225 22.1329C28.4206 24.5761 27.0573 26.4638 25.0939 27.6609C23.9699 28.3441 22.6861 28.7071 21.3769 28.712L19.5977 28.7196C19.5237 28.7196 19.4497 28.7187 19.3759 28.7168H19.3752Z" fill="#42474D"/>
<path d="M5.51172 2.17021L4.44275 1.08253L0.998961 4.76792L4.44275 8.45312L5.51172 7.36506L3.13672 4.76773L5.51172 2.17021Z" fill="#42474D"/>
<path d="M9.67134 0.290977L5.48234 4.7364L5.45294 4.76765L9.67134 9.24414L10.793 8.10248L7.69323 4.76765L10.793 1.43207L9.67134 0.290977Z" fill="#42474D"/>
</g>
<defs>
<clipPath id="clip0_2564_7685">
<rect width="32" height="30" fill="white"/>
</clipPath>
</defs>
</svg>

<svg width="32" height="30" fill="none" xmlns="http://www.w3.org/2000/svg"><g clip-path="url(#clip0_2564_7685)" fill="#42474D"><path d="M27.488 7.365l1.07 1.088L32 4.767l-3.444-3.685-1.069 1.088 2.375 2.597-2.375 2.598z"/><path d="M23.329 9.244L27.518 4.8l.03-.032-4.22-4.476-1.121 1.142 3.1 3.335-3.1 3.335 1.122 1.141zm-9.127-6.887a3.311 3.311 0 014.736 0 3.456 3.456 0 01.178 4.623l.003 1.789c.276-.182.532-.393.764-.63 1.827-1.859 1.827-4.886 0-6.745a4.634 4.634 0 00-6.626 0c-1.826 1.86-1.827 4.887 0 6.746.257.261.543.491.853.685l-.005-1.752a3.456 3.456 0 01.097-4.716z"/><path d="M29.907 21.243l-.006-1.291-.017-4.362a2.575 2.575 0 00-.734-1.793 2.486 2.486 0 00-.81-.554 2.45 2.45 0 00-.957-.193h-.061a2.41 2.41 0 00-1.152.32 2.553 2.553 0 00-.918-1.263 2.482 2.482 0 00-1.47-.478h-.048a2.42 2.42 0 00-1.306.417 2.6 2.6 0 00-.465-.653 2.45 2.45 0 00-1.712-.744h-.054a2.453 2.453 0 00-1.073.251l-.004-2.13-.004-1.789-.003-1.626a2.66 2.66 0 00-.752-1.839 2.45 2.45 0 00-1.717-.744h-.054c-1.38.01-2.495 1.158-2.49 2.562l.006 1.74.005 1.753.021 7.152a2.464 2.464 0 00-2.395-.487h-.003l-.004.001c-1.313.436-2.034 1.878-1.607 3.215l.946 2.963.002.006.003.007.897 2.707a8.399 8.399 0 001.966 3.224c1.457 1.484 3.377 2.33 5.406 2.383h.004L19.6 30h.004l1.78-.008a8.452 8.452 0 004.359-1.233c2.432-1.483 3.899-3.786 4.132-6.486a7.33 7.33 0 00.035-.692v-.004l-.002-.334zm-10.532 7.474c-1.749-.046-3.36-.797-4.55-2.008a7.068 7.068 0 01-1.662-2.729l-.897-2.706-.946-2.963a1.29 1.29 0 01.074-.968 1.254 1.254 0 011.108-.694 1.239 1.239 0 011.19.877l.796 2.49.045.14a.434.434 0 00.424.317.444.444 0 00.45-.46L15.36 5.328a1.29 1.29 0 01.362-.9c.233-.238.55-.373.88-.375h.024c.319.006.622.138.846.369.244.25.382.586.383.938l.04 12.655c0 .143.056.28.154.383a.536.536 0 00.371.166h.019c.3-.001.543-.273.541-.581l-.018-4.777c-.001-.337.129-.66.362-.9a1.24 1.24 0 01.88-.376h.024c.319.006.622.138.846.37.244.249.382.586.383.939l.021 5.424c0 .143.055.28.154.383a.536.536 0 00.39.166c.3-.001.543-.273.542-.581l-.019-4.404c-.002-.699.532-1.3 1.219-1.317h.023c.331-.001.65.131.884.369.235.237.368.56.37.896l.02 5.246a.557.557 0 00.165.383.537.537 0 00.76-.003.557.557 0 00.16-.384l-.014-3.77c-.003-.698.532-1.3 1.218-1.316h.023c.331-.002.65.13.884.368.235.237.368.56.37.896l.017 4.362.005 1.292.002.335c0 .112-.01.441-.027.549-.202 2.443-1.566 4.33-3.53 5.528a7.206 7.206 0 01-3.716 1.051l-1.78.008-.221-.003zM5.512 2.17l-1.07-1.087L1 4.768l3.444 3.685 1.069-1.088-2.375-2.597L5.512 2.17z"/><path d="M9.671.291L5.482 4.736l-.03.032 4.22 4.476 1.121-1.142-3.1-3.334 3.1-3.336L9.671.291z"/></g><defs><clipPath id="clip0_2564_7685"><path fill="#fff" d="M0 0h32v30H0z"/></clipPath></defs></svg>
